X: 938
T: All Around Aunt Ruby's Garden
R: polka
M: 2/4
K: Cmajor
|:CE GE|ED ED|CE GE|ED D2|
CE GE|ED EG|A>B AG|ED C2:|
|:Cc Bc|E>F ED|Cc Bc|d2 d2|
Cc Bc|E>D EG|A>B AG|ED C2:|

